public/avatar/hat/317.svg

<svg xmlns:xlink="http://www.w3.org/1999/xlink" height="92.9" width="100.7" xmlns="http://www.w3.org/2000/svg"><use height="19.9" transform="translate(16.85 42)" width="34.2" xlink:href="#a"/><defs><g id="a" fill-rule="evenodd"><path d="m12.3 9.4.05 1.7q-7-2.95-14.2-2.95-1.3 0-6.75 2.05l-5.4 1.95q-.1-2.4.3-2.55 16.2-6.3 26-.2" fill="#828281" transform="translate(21.8 7.75)"/><path d="M7.05 2.3q1.7 0 2.35.95l.7 1.8q.35 1.1.9 1.3.65.3 1.15 1.95.5 1.65-.05 1.85-2.8-1.1-9.55-2.4-4.1-.8-10.6 1.4-5.65 2.3-5.85 2.1l-.4-1.15q-.15-.9.15-1.3 2-2.45 10.55-4.65Q3.65 2.3 7.05 2.3" fill="#adadad" transform="translate(21.8 7.75)"/><path d="m5.55 4.65 3.15-.4q1.35 2.25 1.95 2.5.7.25 1 1.45.3 1.15-.25 1.35L8.95 8.8Q5.8 7.7 1.85 7.1q-3.9-.55-9.9 1.5-5.1 2.1-5.3 1.9-.25-.3.7-1 .85-.7 7.1-2.65 7.3-2.35 11.1-2.2" fill="#fff" transform="translate(21.8 7.75)"/><path d="M-3.6-7.65q3.65-.2 4.1.05l4.55 2.25 3.75 7q.65 1.25.5 1.4l-2.8.75-9.35 1.5-4.95 1.45q-3.85 1.3-4.3 1.75-1.75 2.35-2.1 2.4-4.9.55-6.8-.75-.7-.5-.8-2.05-.1-1.6.7-2.65 1.3-1.6 3.9-2.8 1.9-.9 2.7-1 .1-1.7.7-3.55 1.15-3.75 3.55-4.65 2.45-.9 6.65-1.1" transform="translate(21.8 7.75)"/><path d="m-9.15-6.1 10-.1Q4.55-4.8 5.5-3q2.6 5 2.15 5.3l-4.2.85-4.8.6q-.8-.05-4.4-4.95l-3.4-4.9" fill="#020200" transform="translate(21.8 7.75)"/><path d="M-9.15-6.1q8.2 5.6 7.8 9.85-10.75.85-12.25-.1l-.15-1.9q0-1.85.35-2.45 2.8-5.05 4.25-5.4" fill="#3a3a3a" transform="translate(21.8 7.75)"/><path d="m8.8-1.8 1 2.35q0 .55-.55 1l-.95.6-1.25-3.5L8.8-1.8" fill="#020200" transform="translate(21.8 7.75)"/><path d="M-14.1 9.8q-.2.45-2.05.35l-3.3-.25q-2.8-.15-.75-3.85.65-1.15 3-2.35 2.25-1.2 4.35-1.5 2.75-.35 11.45 1.35 1.25.3-.6.55-10.35 2.05-12.1 5.7" fill="#5b5b5b" transform="translate(21.8 7.75)"/><path d="m.35 6.1 7.5-.5q.9 0 1.4.55l1.2.65-1.95.1-3.3-.6-2.9-.2H.35" fill="#d0d5d6" transform="translate(21.8 7.75)"/><path d="M-19.85 6.25q.15-1.1 2.85-2.45 3.35-1.75 5-1.3-1.85 0-5.2 2.6-2.1 1.8-2.65 1.2v-.05" fill="#828281" transform="translate(21.8 7.75)"/><path d="M-19.4 5.95q.15-.8 2.15-1.65-2 2.6-2.2 1.7l.05-.05" fill="#adadad" transform="translate(21.8 7.75)"/><path d="M6.55-.05q.35-.1 1.6-.75L8.8.25q.35.9-.25 1.25l-1.4.45q-3.1 1.1-3.75.8l.1-.05L2.75.55l3.8-.6" fill="#4f4f4e" transform="translate(21.8 7.75)"/><path d="M4.5 0h.05q.9-.05 1.1.3l.85 2.25-1.4.35L4.5 0" fill="#020200" transform="translate(21.8 7.75)"/><path d="M6.1.35 7.75-.2l.6.75-2.05.55-.2-.75" fill="#828281" transform="translate(21.8 7.75)"/></g></defs></svg>

<?xml version="1.0" encoding="UTF-8" standalone="no"?>
<svg xmlns:xlink="http://www.w3.org/1999/xlink" height="92.9px" width="100.7px" xmlns="http://www.w3.org/2000/svg">
  <g transform="matrix(1.0, 0.0, 0.0, 1.0, 38.65, 49.75)">
    <use height="19.9" transform="matrix(1.0, 0.0, 0.0, 1.0, -21.8, -7.75)" width="34.2" xlink:href="#shape0"/>
  </g>
  <defs>
    <g id="shape0" transform="matrix(1.0, 0.0, 0.0, 1.0, 21.8, 7.75)">
      <path d="M12.3 9.4 L12.35 11.1 Q5.35 8.15 -1.85 8.15 -3.15 8.15 -8.6 10.2 L-14.0 12.15 Q-14.1 9.75 -13.7 9.6 2.5 3.3 12.3 9.4" fill="#828281" fill-rule="evenodd" stroke="none"/>
      <path d="M7.05 2.3 Q8.75 2.3 9.4 3.25 L10.1 5.05 Q10.45 6.15 11.0 6.35 11.65 6.65 12.15 8.3 12.65 9.95 12.1 10.15 9.3 9.05 2.55 7.75 -1.55 6.95 -8.05 9.15 -13.7 11.45 -13.9 11.25 L-14.3 10.1 Q-14.45 9.2 -14.15 8.8 -12.15 6.35 -3.6 4.15 3.65 2.3 7.05 2.3" fill="#adadad" fill-rule="evenodd" stroke="none"/>
      <path d="M5.55 4.65 L8.7 4.25 Q10.05 6.5 10.65 6.75 11.35 7.0 11.65 8.2 11.95 9.35 11.4 9.55 L8.95 8.8 Q5.8 7.7 1.85 7.1 -2.05 6.55 -8.05 8.6 -13.15 10.7 -13.35 10.5 -13.6 10.2 -12.65 9.5 -11.8 8.8 -5.55 6.85 1.75 4.5 5.55 4.65" fill="#ffffff" fill-rule="evenodd" stroke="none"/>
      <path d="M-3.6 -7.65 Q0.05 -7.85 0.5 -7.6 L5.05 -5.35 8.8 1.65 Q9.45 2.9 9.3 3.05 L6.5 3.8 -2.85 5.3 -7.8 6.75 Q-11.65 8.05 -12.1 8.5 -13.85 10.85 -14.2 10.9 -19.1 11.45 -21.0 10.15 -21.7 9.65 -21.8 8.1 -21.9 6.5 -21.1 5.45 -19.8 3.85 -17.2 2.65 -15.3 1.75 -14.5 1.65 -14.4 -0.05 -13.8 -1.9 -12.65 -5.65 -10.25 -6.55 -7.8 -7.45 -3.6 -7.65" fill="#000000" fill-rule="evenodd" stroke="none"/>
      <path d="M-9.15 -6.1 L0.85 -6.2 Q4.55 -4.8 5.5 -3.0 8.1 2.0 7.65 2.3 L3.45 3.15 -1.35 3.75 Q-2.15 3.7 -5.75 -1.2 L-9.15 -6.1" fill="#020200" fill-rule="evenodd" stroke="none"/>
      <path d="M-9.15 -6.1 Q-0.95 -0.5 -1.35 3.75 -12.1 4.6 -13.6 3.65 L-13.75 1.75 Q-13.75 -0.1 -13.4 -0.7 -10.6 -5.75 -9.15 -6.1" fill="#3a3a3a" fill-rule="evenodd" stroke="none"/>
      <path d="M8.8 -1.8 L9.8 0.55 Q9.8 1.1 9.25 1.55 L8.3 2.15 7.05 -1.35 8.8 -1.8" fill="#020200" fill-rule="evenodd" stroke="none"/>
      <path d="M-14.1 9.8 Q-14.3 10.25 -16.15 10.15 L-19.45 9.9 Q-22.25 9.75 -20.2 6.05 -19.55 4.9 -17.2 3.7 -14.95 2.5 -12.85 2.2 -10.1 1.85 -1.4 3.55 -0.15 3.85 -2.0 4.1 -12.35 6.15 -14.1 9.8" fill="#5b5b5b" fill-rule="evenodd" stroke="none"/>
      <path d="M0.35 6.1 L7.85 5.6 Q8.75 5.6 9.25 6.15 L10.45 6.8 8.5 6.9 5.2 6.3 2.3 6.1 0.35 6.1" fill="#d0d5d6" fill-rule="evenodd" stroke="none"/>
      <path d="M-19.85 6.25 Q-19.7 5.15 -17.0 3.8 -13.65 2.05 -12.0 2.5 -13.85 2.5 -17.2 5.1 -19.3 6.9 -19.85 6.3 L-19.85 6.25" fill="#828281" fill-rule="evenodd" stroke="none"/>
      <path d="M-19.4 5.95 Q-19.25 5.15 -17.25 4.3 -19.25 6.9 -19.45 6.0 L-19.4 5.95" fill="#adadad" fill-rule="evenodd" stroke="none"/>
      <path d="M6.55 -0.05 Q6.9 -0.15 8.15 -0.8 L8.8 0.25 Q9.15 1.15 8.55 1.5 L7.15 1.95 Q4.05 3.05 3.4 2.75 L3.5 2.7 2.75 0.55 6.55 -0.05" fill="#4f4f4e" fill-rule="evenodd" stroke="none"/>
      <path d="M4.5 0.0 L4.55 0.0 Q5.45 -0.05 5.65 0.3 L6.5 2.55 5.1 2.9 4.5 0.0" fill="#020200" fill-rule="evenodd" stroke="none"/>
      <path d="M6.1 0.35 L7.75 -0.2 8.35 0.55 6.3 1.1 6.1 0.35" fill="#828281" fill-rule="evenodd" stroke="none"/>
    </g>
  </defs>
</svg>
